X:1
T:E minor Walter Janes, 1807
T:Isaac Watts, 1717 (Psalm 102, Part 1)       86. 86. (C. M.)
T:Despair
T:Transcribed from The Harmonic Minstrelsey, 1807.
%%score [ 1 2 3 4 ]
L:1/8
Q:1/4=100
M:4/4
K:G
V:1 treble nm="Treble" snm="Tr."
V:2 treble nm="Counter" snm="C."
V:3 treble-8 nm="Tenor" snm="T."
V:4 bass nm="Bass" snm="B."
V:1
"^2. My  soul is like          a     wil – der  – ness,   Where beasts of midnight howl;  There the sad raven finds her place,  And""^1. As   on some lone  – ly   building's      top          The  sparrow  tells  her  moan,     Far from the tents of joy and hope  I" B8 | %1
 B2 e2 B4- | B4 A4 | B2 e2 ^d4- | d4 z4 | z8 | z8 | z4 B4 | B2 B2 G2 G2 | d2 d2 d4- | d4 d4 | %11
"^1. sit  and grieve  a – lone,         I        sit  and  grieve  a – lone.""^2. there the screaming owl,     And there the screaming owl." g2 B2 B2 (3AGB | %12
 A8 | e4 B2 c2 | B4 B4 | B8 |] %16
V:2
"^3. Dark, dismal thoughts, and boding fears, Dwell in my troubled breast;  While sharp reproaches wound my ears,  Nor""^4. My    cup is min  –  gled     with  my   woes,       And    tears   are   my   repast;      My daily bread, like ashes, grows   Un –" G8 | %1
 E2 E2 B4- | B4 F4 | GB AG F4- | F4 z4 | z8 | z8 | z4 G4 | G2 G2 G2 G2 | F2 F2 G4- | G4 z4 | %11
"^3. give  my  spi  –  rit      rest,        Nor  give my     spirit       rest.""^4. –pleasant  to     my    taste,       Un – plea – sant  to my taste." z8 | %12
 z8 | B4 E2 A2 | G4 F4 | E8 |] %16
V:3
"^5. Sense can af  –  ford me    no     real      joy    To souls that feel thy frown;  Lord, 'twas thy hand advanced me high,  Thy""^6. But  thou  for – ev  –  er    art     the    same,           O      my    e   –   ter – nal  God;   Ages to come shall know thy name,  And" E8 | %1
 G2 G2 d4- | d4 A4 | G2 GA B4- | B4 B4 | BA GB A2 A2 | d8- | d4 d4 | g2 B2 B2 G2 | A2 d2 B4- | %10
 B4 z4 | %11
"^5. hand hath cast me down,   Thy hand hath cast me down.""^6. spread thy works abroad,  And spread thy works abroad." z8 | %12
 z8 | B4 B2 e2 | ^d4 d4 | e8 |] %16
V:4
"^7. Thou  wilt  a – rise   and  show  thy    face,       Nor   will    my   Lord  de–lay  Beyond th' appointed hour of grace,  That""^8. He  hears  his  saints, he knows their  cry,        And  by mysterious ways   Redeems the prisoners doomed to die,  And" E,8 | %1
 E,2 E,2 G,4- | G,4 F,4 | E,2 E,>D, B,,4- | B,,4 E,4 | G,2 B,,2 D,2 D,2 | D,8- | D,4 G,4 | %8
 E,2 E,2 E,2 G,2 | D,2 D,2 G,4- | G,4 G,4 | %11
"^7. long-expected            day,       That  long – expected    day.""^8. fills their tongues with praise, And fills their tongues with praise," E,2 E,2 G,2 E,2 | %12
"^__________________________________________________\nEdited by B. C. Johnston, 2016\n   1. Measure 4, \nBass\n: grace note following second E converted to eighth note.\n   2. Measure 11, Treble: grace notes leading and following F converted to triplet." D,8 | %13
 E,4 G,2 A,2 | B,4 B,,4 | E,8 |] %16

